images/gtk-2.0/tab_active.svg

<?xml version="1.0" encoding="UTF-8" standalone="no"?>
<svg height="5" xmlns="http://www.w3.org/2000/svg" shape-rendering="crispEdges" viewBox="0 0 1.3229167 1.3229167" width="5" version="1.1">
 <rect style="paint-order:normal" height="1.3229" width="1.3229" y="-1.3878e-16" x="-1.6653e-16" fill="#bf584e"/>
 <g transform="translate(0 -295.68)">
  <path style="paint-order:normal" d="m0 0v1 4h1 4v-1-3-1h-1-3-1zm1 1h3v3h-3v-3z" fill-opacity=".99237" transform="matrix(.26458 0 0 .26458 0 295.68)"/>
 </g>
</svg>

<?xml version="1.0" encoding="UTF-8" standalone="no"?>
<svg
   xmlns:dc="http://purl.org/dc/elements/1.1/"
   xmlns:cc="http://creativecommons.org/ns#"
   xmlns:rdf="http://www.w3.org/1999/02/22-rdf-syntax-ns#"
   xmlns:svg="http://www.w3.org/2000/svg"
   xmlns="http://www.w3.org/2000/svg"
   xmlns:sodipodi="http://sodipodi.sourceforge.net/DTD/sodipodi-0.dtd"
   xmlns:inkscape="http://www.inkscape.org/namespaces/inkscape"
   shape-rendering="crispEdges"
   id="svg8"
   version="1.1"
   viewBox="0 0 1.3229167 1.3229167"
   height="5"
   width="5"
   sodipodi:docname="tab-active.svg"
   inkscape:version="0.92.1 r15371">
  <sodipodi:namedview
     pagecolor="#ffffff"
     bordercolor="#666666"
     borderopacity="1"
     objecttolerance="10"
     gridtolerance="10"
     guidetolerance="10"
     inkscape:pageopacity="0"
     inkscape:pageshadow="2"
     inkscape:window-width="640"
     inkscape:window-height="480"
     id="namedview8"
     showgrid="true"
     inkscape:current-layer="svg8">
    <inkscape:grid
       type="xygrid"
       id="grid10" />
  </sodipodi:namedview>
  <defs
     id="defs2" />
  <metadata
     id="metadata5">
    <rdf:RDF>
      <cc:Work
         rdf:about="">
        <dc:format>image/svg+xml</dc:format>
        <dc:type
           rdf:resource="http://purl.org/dc/dcmitype/StillImage" />
        <dc:title />
      </cc:Work>
    </rdf:RDF>
  </metadata>
  <rect
     y="0.26458335"
     x="0.26458335"
     height="0.79374999"
     width="0.79374999"
     id="rect8"
     style="opacity:1;fill:#bf584e;fill-opacity:1;stroke:none;stroke-width:0.15875;stroke-linecap:square;stroke-linejoin:round;stroke-miterlimit:4;stroke-dasharray:none;stroke-opacity:1;paint-order:normal" />
  <g
     transform="translate(0,-295.67705)"
     id="layer1">
    <path
       style="opacity:0.5;fill:#000000;fill-opacity:0.99236642;stroke:none;stroke-width:0.44720426;stroke-linecap:square;stroke-linejoin:round;stroke-miterlimit:4;stroke-dasharray:none;stroke-opacity:1;paint-order:normal"
       d="M 0 0 L 0 1 L 0 5 L 1 5 L 5 5 L 5 4 L 5 1 L 5 0 L 4 0 L 1 0 L 0 0 z M 1 1 L 4 1 L 4 4 L 1 4 L 1 1 z "
       transform="matrix(0.26458334,0,0,0.26458334,0,295.67705)"
       id="rect14" />
  </g>
</svg>
